X: 29
T:Frankie Kennedy's
S:Altan The Blue Idol Track 5
M:6/8
F:http://blackrosetheband.googlepages.com/ABCTUNES.ABC May 2009
R:jig
K:D
a2g |: fdA dfa | fga b2a | geg fdf | ecA A2a |
fga fga | fga b2a | geg fdf |1 ecA d2a :|2 ecA dcB |
|: Add dcd | Bee ede | fdB AFA | BAF DFG |
Add dcd | Bee ede | fdB ABc |1 dfe dcB :|2 dfe d2a |

